X: 1
T: Eileen O'Riordan's
M: 12/8
L: 1/8
R: slide
K: Amix
E2 A ABA G2 A Bcd | e2 A B2 A GAG F2 G |
E2 A ABA G2 A Bcd |1 efe dcB A3 AGF :|2 efe dcB A3 Bcd ||
e3 edc d3 c2 d | e2 A B2 A GAG F2 G |
E2 A ABA G2 A Bcd |1 efe dcB A3 Bcd :|2 efe dcB A3 A3 ||
